X:1
T:Gather Around the Christmas Tree
T:Gather Around the Christmas Tree
T:John Henry Hopkins, Jr.
T:John Henry Hopkins, Jr., 1863
T:Public Domain Courtesy of the Cyber Hymnal™
T:Public Domain Courtesy of the Cyber Hymnal™
C:John Henry Hopkins, Jr.
Z:Public Domain
Z:Courtesy of the Cyber Hymnal™
%%score ( 1 2 ) ( 3 4 )
L:1/8
Q:1/4=110
M:4/4
K:G
V:1 treble 
V:2 treble 
V:3 bass 
V:4 bass 
V:1
 [Dd]2 [GB][FA] G2 [GB]2 | [FA]2 D2 [DG]4 | [Dd]2 [GB][FA] G2 [GB]2 | [FA]2 D2 [DG]4 | %4
w: 1.~Ga- ther a- round the|Chris- tmas tree!|Ga- ther a- round the|Christ- mas tree!|
w: 2.~G- ather a- round the|Christ- mas tree!|Ga- ther a- round the|Christ- mas tree!|
w: 3.~Ga- ther a- round the|Christ- mas tree!|Ga- ther a- round the|Chris- tmas tree!|
w: 4.~Fare- well to thee, O|Christ- mas tree!|Fare- well to thee, O|Christ- mas tree!|
 [GB]2 [AB]2 [GB]2 [EA][EB] | [Ec]2 [Ec]2 [Dc]2 [GB][Ac] | [Bd]2 [Fd]2 [Gd]2 [Ad]2 | %7
w: Ev- er- green have its|branch- es been, It is|king of all the|
w: Once the pride of the|mount- ain- side, Now cut|down to grace our|
w: Ev- ery bough bears a|bur- den now— They are|gifts of love for|
w: Twelve months o’er, we shall|meet once more, Mer- ry|wel- come sing- ing,|
 [Gd]2 [G^c]2 !fermata![Fd]2 [DB]2 | [Dd]2 [GA]2 [FA]2 [EA]2 | [^DB]3 [FA] [EG]2 [=FG]2 | %10
w: wood- land scene; For|Christ our king is|born to- day! His|
w: Christ- mas- tide; For|Christ from Heav’n to|earth came down, To|
w: us, we trow; For|Christ is born, His|love to show, And|
w: as of yore, For|Christ now reigns, our|Sav- ior dear, And|
 [Ee]2 E2 [DF]2 [DG]2 | [DA]3 [GA] [FA]2 ||"^Refrain" [GB]2 | [Gc]4 [FA]2 [GB]2 | %14
w: reign shall ne- ver|pass a- way.|||
w: gain, through death, a|nob- ler crown.|||
w: give good gifts to|men be- low.|Ho-|san- na, ho-|
w: gives us Christ- mas|ev- ery year!|||
 [Gc]4 [FA]2 (Bc) | [Fd]2 [EG]2 c2 [GB]2 | [FA]4 G4 |] %17
w: |||
w: |||
w: san- na, Ho- *|san- na in the|high- est!|
w: |||
V:2
 x4 G2 x2 | x2 D2 x4 | x4 G2 x2 | x2 D2 x4 | x8 | x8 | x8 | x8 | x8 | x8 | x2 E2 x4 | x6 || x2 | %13
 x8 | x6 G2 | x4 (EF) x2 | x4 G4 |] %17
V:3
 [G,B,]2 [G,B,][A,C] [B,D]2 [G,D]2 | [D,D]2 [D,C]2 [G,,B,]4 | [G,B,]2 [G,B,][A,C] [B,D]2 [G,D]2 | %3
 [D,D]2 [D,C]2 [G,,B,]4 | [G,D]2 [F,^D]2 [E,E]2 [CE][B,=D] | [A,C]2 [G,B,]2 [F,A,]2 D[CD] | %6
 [B,D]2 [A,C]2 [G,B,]2 [F,A,]2 | [E,B,]2 A,2 !fermata![D,A,]2 G,2 | %8
 [F,A,]2 [E,^C]2 [D,D]2 [=C,A,]2 | [B,,F,]3 [^D,B,] [E,B,]2 [=D,B,]2 | %10
 [C,C]2 ([CE][B,D]) [A,C]2 [G,B,]2 | [F,A,]3 [E,^C] [D,D]2 || [G,D]2 | [C,E]4 [D,D]2 [G,D]2 | %14
 [C,E]4 [D,D]2 [G,D]2 | [D,D]2 [E,B,]2 [A,,E]2 D2 | [D,D]4 [G,,B,]4 |] %17
V:4
 x8 | x8 | x8 | x8 | x8 | x6 D x | x8 | x2 A,2 G,2 x2 | x8 | x8 | x8 | x6 || x2 | x8 | x8 | %15
 x6 (B,,C,) | x8 |] %17

